X:1
T:BWV 0772
T:Invention 1    (A = 415 Hz)
T:Johann Sebastian Bach
%%score { 1 | 2 }
L:1/8
Q:1/4=80
M:4/4
K:C
V:1 treble nm="Harp"
V:2 bass 
V:1
 z/ C/D/E/ F/D/E/C/ Gc c/4B/4c/4B/4c | d/G/A/B/ c/A/B/G/ dg g/4f/4g/4f/4g | %2
 e/a/g/f/ e/g/f/a/ g/f/e/d/ c/e/d/f/ | e/d/c/B/ A/c/B/d/ c/B/A/G/ ^F/A/G/B/ | %4
 AD c/4B/4cd/ B/A/G/^F/ E/G/F/A/ | G/B/A/c/ B/d/c/e/ d/B/4c/4d/g/ c/4B/4c/4B/4A/G/ | %6
 G z z2 z/ G/A/B/ c/A/B/G/ | G/4^F/4G/4F/4 z z2 z/ A/B/c/ d/B/c/A/ | B z z2 z/ d/c/B/ A/c/B/d/ | %9
 c z z2 z/ e/d/c/ B/d/^c/e/ | d^c de fA =Bc | d^F ^GA Bc d2- | %12
 d/E/^F/^G/ A/F/G/E/ e/d/c/e/ d/c/B/d/ | c/a/^g/b/ a/e/f/d/ ^G/f/e/d/ d/4c/4d/4c/4B/A/ | %14
 A/a/=g/f/ e/g/f/a/ g4- | g/e/f/g/ a/f/g/e/ f4- | f/g/f/e/ d/f/e/g/ f4- | f/d/e/f/ g/e/f/d/ e4- | %18
 e/c/d/e/ f/d/e/c/ d/e/f/g/ a/f/g/e/ | f/g/a/=b/ c'/a/b/g/ c'g f/4e/4f/4e/4d/c/ | %20
 c/_B/A/G/ F/A/G/B/ A/=B/c/E/ D/c/F/B/ | !fermata![EGc]8 |] %22
V:2
 z4 z/ C,/D,/E,/ F,/D,/E,/C,/ | G,G,, z2 z/ G,/A,/B,/ C/A,/B,/G,/ | CB,CD EG, A,B, | %3
 CE, ^F,G, A,B, C2- | C/D,/E,/^F,/ G,/E,/F,/D,/ G,B,, C,D, | E,^F, G,E, B,,>C, D,D,, | %6
 z/ G,,/A,,/B,,/ C,/A,,/B,,/G,,/ D,G, ^F,G, | A,/D,/E,/^F,/ G,/E,/F,/D,/ A,DCD | %8
[K:treble] G,/G/F/E/ D/F/E/G/ FEFD | E/A/G/F/ E/G/F/A/ GF GE | %10
 F/_B/A/G/ F/A/G/B/ A/G/F/E/ D/F/E/G/ | F/E/D/C/ B,/D/C/E/[K:bass] D/C/B,/A,/ ^G,/B,/A,/C/ | %12
 B,E, D/4C/4DE/ C/B,/A,/=G,/ ^F,/A,/^G,/B,/ | A,/C/B,/D/ C/E/D/F/ EA,EE, | %14
 A,A,, z2 z/ E/D/C/ B,/D/^C/E/ | D4- D/A,/B,/=C/ D/B,/C/A,/ | B,4- B,/D/C/B,/ A,/C/B,/D/ | %17
 C4- C/G,/A,/_B,/ C/A,/B,/G,/ | A,_B,A,G, F,D CB, | A,F ED E/D,/E,/F,/ G,/E,/F,/D,/ | %20
 E,C,D,E, F,/D,/E,/F,/ G,G,, | !fermata!C,,8 |] %22

